X: 29880
T: O'Keeffe's
R: slide
M: 12/8
K: Adorian
A2e e2d BAB d2B|A2e e2d BAB dBG|A2e e2d BAB d2e|g2a g2e d2B A2G:|
efg a2b a2g e2d|efg a2b a2g e2f|g2f g2e dBA G2A|BAB d2e B2A A3:|

